packages/kaspersky-hexa-ui-icons/src/iconsSVGs/16/Diamond.svg

<svg width="16" height="16" viewBox="0 0 16 16" fill="none" xmlns="http://www.w3.org/2000/svg">
<g clip-path="url(#clip0_8476_2426)">
<path fill-rule="evenodd" clip-rule="evenodd" d="M8.50387 14.8106C8.38043 14.9621 8.19541 15.05 8.00003 15.05C7.80465 15.05 7.61963 14.9621 7.49619 14.8106L0.929368 6.75387C0.759874 6.54592 0.735549 6.25521 0.86813 6.02198L3.56451 1.27872C3.68004 1.07549 3.89581 0.949951 4.12958 0.949951H11.8705C12.1043 0.949951 12.32 1.07549 12.4356 1.27872L15.1319 6.02198C15.2645 6.25521 15.2402 6.54592 15.0707 6.75387L8.50387 14.8106ZM2.59784 5.60975L4.50777 2.24995H11.4923L13.4022 5.60975H2.59784ZM13.2665 6.90975L8.00003 13.3711L2.73354 6.90975H13.2665Z" fill="black"/>
</g>
<defs>
<clipPath id="clip0_8476_2426">
<rect width="16" height="16" fill="white"/>
</clipPath>
</defs>
</svg>

<svg xmlns="http://www.w3.org/2000/svg" width="16" height="16" fill="none" viewBox="0 0 16 16"><path fill="#000" fill-rule="evenodd" d="M8.5039 14.8106a.65.65 0 0 1-1.0077 0L.9294 6.7539a.65.65 0 0 1-.0613-.732l2.6964-4.7432A.65.65 0 0 1 4.1295.95h7.741a.65.65 0 0 1 .5651.3287l2.6963 4.7433a.65.65 0 0 1-.0612.7319zm-5.906-9.2009L4.5077 2.25h6.9845l1.9099 3.3598zm10.6686 1.3L8 13.3712 2.7335 6.9097z"/></svg>
